src/assets/duotone/MessageSearch.svg

<svg width="24" height="24" viewBox="0 0 24 24"  xmlns="http://www.w3.org/2000/svg">
<path d="M22.53 21.47L21.79 20.73C22.17 20.15 22.4 19.45 22.4 18.7C22.4 16.66 20.74 15 18.7 15C16.66 15 15 16.66 15 18.7C15 20.74 16.66 22.4 18.7 22.4C19.45 22.4 20.15 22.17 20.73 21.79L21.47 22.53C21.62 22.68 21.81 22.75 22 22.75C22.19 22.75 22.38 22.68 22.53 22.53C22.82 22.24 22.82 21.76 22.53 21.47Z" />
<path opacity="0.4" d="M2 12.9698V6.98977C2 4.23977 4.24 2.00977 7 2.00977H17C19.76 2.00977 22 4.23977 22 6.99977V13.9798C22 16.7298 19.76 18.9598 17 18.9598H15.5C15.19 18.9598 14.89 19.1098 14.7 19.3598L13.2 21.3498C12.54 22.2298 11.46 22.2298 10.8 21.3498L9.29999 19.3598C9.12999 19.1398 8.78 18.9598 8.5 18.9598H7C4.24 18.9598 2 16.7298 2 13.9798V12.9698Z" />
<path d="M12.0002 12C11.4402 12 10.9902 11.55 10.9902 11C10.9902 10.45 11.4402 10 11.9902 10C12.5402 10 12.9902 10.45 12.9902 11C12.9902 11.55 12.5602 12 12.0002 12Z" />
<path d="M16.0002 12C15.4402 12 14.9902 11.55 14.9902 11C14.9902 10.45 15.4402 10 15.9902 10C16.5402 10 16.9902 10.45 16.9902 11C16.9902 11.55 16.5602 12 16.0002 12Z" />
<path d="M8.00024 12C7.44024 12 6.99023 11.55 6.99023 11C6.99023 10.45 7.44023 10 7.99023 10C8.54023 10 8.99023 10.45 8.99023 11C8.99023 11.55 8.56024 12 8.00024 12Z" />
</svg>

<?xml version="1.0" encoding="UTF-8"?>
<svg width="24" height="24" viewBox="0 0 24 24" xmlns="http://www.w3.org/2000/svg">
 <path d="m22.53 21.47-0.74-0.74c0.38-0.58 0.61-1.28 0.61-2.03 0-2.04-1.66-3.7-3.7-3.7s-3.7 1.66-3.7 3.7 1.66 3.7 3.7 3.7c0.75 0 1.45-0.23 2.03-0.61l0.74 0.74c0.15 0.15 0.34 0.22 0.53 0.22s0.38-0.07 0.53-0.22c0.29-0.29 0.29-0.77 0-1.06z"/>
 <path d="m2 12.97v-5.98c0-2.75 2.24-4.98 5-4.98h10c2.76 0 5 2.23 5 4.99v6.98c0 2.75-2.24 4.98-5 4.98h-1.5c-0.31 0-0.61 0.15-0.8 0.4l-1.5 1.99c-0.66 0.88-1.74 0.88-2.4 0l-1.5-1.99c-0.17-0.22-0.51999-0.4-0.79999-0.4h-1.5c-2.76 0-5-2.23-5-4.98v-1.01z" opacity=".4"/>
 <path d="m12 12c-0.56 0-1.01-0.45-1.01-1s0.45-1 1-1 1 0.45 1 1-0.43 1-0.99 1z"/>
 <path d="m16 12c-0.56 0-1.01-0.45-1.01-1s0.45-1 1-1 1 0.45 1 1-0.43 1-0.99 1z"/>
 <path d="m8.0002 12c-0.56 0-1.01-0.45-1.01-1s0.45-1 1-1 1 0.45 1 1-0.42999 1-0.98999 1z"/>
</svg>
